X:1
T:Symphony No. 104 'London' (theme)
C:Joseph Haydn
M:4/4
L:1/8
Q:1/4=120
K:D
DD | D2F2 A2d2 | d4 A4 | F2D2 F2A2 | D6 z2 | d2d2 cBAG | F2A2 d4 | d2c2 BAGF | B2G2 A4 | G2E2 F2A2 | D8 |]
